!!!COM: nintendo
!!!OTL: the-legend-of-zelda-fairy-theme
!!!RNB: hooktheoryid: -WeglPY-grY
**kern	**text
*clefG2	*
*k[b-]	*
*M4/4	*
=1	=1
16aa	Bbmaj7
16dd	.
16b-	.
16g	.
16gg	.
16dd	.
16b-	.
16g	.
16gg-	Gmin7/Bb
16dd	.
16b-	.
16g	.
16gg	.
16dd	.
16b-	.
16g	.
=2	=2
16gg	Amin7
16cc	.
16a	.
16f	.
16ff	.
16cc	.
16a	.
16f	.
16ee	Fmaj7/A
16cc	.
16a	.
16f	.
16ff	.
16cc	.
16a	.
16f	.
=3	=3
16ff	Gmin7
16b-	.
16g	.
16e	.
16ee	.
16b-	.
16g	.
16e	.
16ee-	C7/G
16b-	.
16g	.
16e	.
16ee	.
16b-	.
16g	.
16e	.
=4	=4
16ee	Fmaj7
16a	.
16f	.
16d	.
16dd	.
16a	.
16f	.
16d	.
16dd-	Dm/F
16a	.
16f	.
16d	.
16dd	.
16a	.
16f	.
16d	.
=5	=5
16aa	Bbmaj7
16dd	.
16b-	.
16g	.
16gg	.
16dd	.
16b-	.
16g	.
16gg-	Gmin7/Bb
16dd	.
16b-	.
16g	.
16gg	.
16dd	.
16b-	.
16g	.
=6	=6
16bb-	D7sus4/A
16ee-	.
16cc	.
16a	.
16aa	.
16ee-	.
16cc	.
16a	.
16aa-	D7
16ee-	.
16cc	.
16a	.
16aa	.
16ee-	.
16cc	.
16a	.
=7	=7
16ccc	Gm
16dd	.
16b-	.
16g	.
16bb-	.
16dd	.
16b-	.
16g	.
16aa	.
16dd	.
16b-	.
16g	.
16bb-	.
16dd	.
16b-	.
16g	.
=8	=8
16aa	C7
16b-	.
16g	.
16e	.
16gg	.
16b-	.
16g	.
16e	.
16ff	.
16b-	.
16g	.
16e	.
16ee	.
16b-	.
16g	.
16e	.
=9	=9
1r	.
*-	*-